!!!COM: Palestrina, Giovanni Perluigi da
!!!OPR: Papae Marcelli
!!!OTL: Kyrie
**kern	**kern	**kern	**kern	**kern	**kern
*Ibass	*Ibass	*Itenor	*Itenor	*Icalto	*Icant
!Bassus 2	!Bassus 1	!Tenor 2	!Tenor 1	!Altus	!Cantus
*clefF4	*clefF4	*clefGv2	*clefGv2	*clefG2	*clefG2
*k[]	*k[]	*k[]	*k[]	*k[]	*k[]
*C:ion	*C:ion	*C:ion	*C:ion	*C:ion	*C:ion
*M4/2	*M4/2	*M4/2	*M4/2	*M4/2	*M4/2
=1	=1	=1	=1	=1	=1
0r	0r	0r	1.d	0r	1r
.	.	.	.	.	[1dd
.	.	.	2d	.	.
=2	=2	=2	=2	=2	=2
1.G	0r	0r	1d	1r	2dd]
.	.	.	.	.	2dd
.	.	.	2.g	[1g	1dd
2G	.	.	.	.	.
.	.	.	4f	.	.
=3	=3	=3	=3	=3	=3
1G	0r	0r	2e	2g]	2.gg
.	.	.	2d	2g	.
.	.	.	.	.	4ff
[1c	.	.	[1e	1g	4ee
.	.	.	.	.	4dd
.	.	.	.	.	4cc
.	.	.	.	.	4b
=4	=4	=4	=4	=4	=4
2c]	0r	0r	2e]	0cc	4a
.	.	.	.	.	4g
2B	.	.	2d	.	1g
1A	.	.	1c	.	.
.	.	.	.	.	2f#
=5	=5	=5	=5	=5	=5
0G	1r	1.d	1d	0b	1g
.	[1G	.	2B	.	1dd
.	.	2d	2G	.	.
=6	=6	=6	=6	=6	=6
0r	2G]	1d	2.g	2r	2.b
.	2G	.	.	1g	.
.	.	.	4f	.	4a
.	1G	2.g	2e	.	4b
.	.	.	.	.	4cc
.	.	.	2d	2g	2dd
.	.	4f	.	.	.
=7	=7	=7	=7	=7	=7
0r	1.c	4e	2c	1g	2.ee
.	.	4d	.	.	.
.	.	4c	1e	.	.
.	.	4B	.	.	4dd
.	.	2A	.	2a	4cc
.	.	.	.	.	4a
.	2B	2B	2d	[2g	[2dd
=8	=8	=8	=8	=8	=8
0r	1A	1c	2e	2g]	4dd]
.	.	.	.	.	4cc
.	.	.	4d	2f#	1cc
.	.	.	4c	.	.
.	[1G	2r	1d	1g	.
.	.	[2g	.	.	2b
=9	=9	=9	=9	=9	=9
1.C	1G]	2g]	1c	1e	0cc
.	.	2g	.	.	.
.	1c	1g	2.e	2r	.
2C	.	.	.	[2g	.
.	.	.	4f	.	.
=10	=10	=10	=10	=10	=10
1C	2c	1e	2g	2g]	2r
.	2c	.	2e	2g	1cc
[1F	2A	2.c	[1f	[1a	.
.	2F	.	.	.	2cc
.	.	4B	.	.	.
=11	=11	=11	=11	=11	=11
2F]	1c	4A	2f]	2a]	1cc
.	.	4F	.	.	.
2E	.	1c	2g	2g	.
1D	1r	.	2a	2f	1ff
.	.	2B	4g	2d	.
.	.	.	4f	.	.
=12	=12	=12	=12	=12	=12
1C	1.C	1c	2a	1e	0ee
.	.	.	2.g	.	.
1c	.	2.e	.	2r	.
.	.	.	4f	.	.
.	2C	.	4e	[2g	.
.	.	4f	4d	.	.
=13	=13	=13	=13	=13	=13
2c	1C	2g	2e	2g]	2r
2c	.	2g	2.c	2e	1cc
2A	[1F	[1a	.	[1f	.
.	.	.	4B	.	.
2F	.	.	4A	.	2cc
.	.	.	4G	.	.
=14	=14	=14	=14	=14	=14
1c	2F]	2a]	4A	2f]	1cc
.	.	.	4F	.	.
.	2E	2g	1c	2g	.
1r	1D	2f	.	2a	1ff
.	.	2d	2B	4g	.
.	.	.	.	4f	.
=15	=15	=15	=15	=15	=15
2r	2C	2e	2c	2a	1ee
2C	1c	2c	2e	2g	.
2F	.	1d	2f	2r	1dd
2G	2B	.	2d	2g	.
=16	=16	=16	=16	=16	=16
2C	2c	1c	2e	2g	2r
1c	2C	.	2c	2e	2ee
.	2F	2r	1d	2a	2ff
2B	2G	2g	.	4g	2dd
.	.	.	.	4f	.
=17	=17	=17	=17	=17	=17
4c	2C	2g	2c	4e	2ee
4B	.	.	.	4d	.
4A	1c	1a	2e	2e	2cc
4G	.	.	.	.	.
2F	.	.	2f	2A	1dd
2G	2B	4g	2d	2B	.
.	.	4f	.	.	.
=18	=18	=18	=18	=18	=18
1C	4c	1e	2e	2G	2cc
.	4B	.	.	.	.
.	4A	.	2c	1c	2ee
.	4G	.	.	.	.
1r	2F	2a	1d	.	2ff
.	2G	[2g	.	2B	2dd
=19	=19	=19	=19	=19	=19
2r	1C	4g]	2c	0c	2ee
.	.	4f	.	.	.
2G	.	4e	2g	.	2.cc
.	.	4d	.	.	.
2A	1r	2c	2e	.	.
.	.	.	.	.	4b
2F	.	[2f	2f	.	2a
=20	=20	=20	=20	=20	=20
1c	1r	2f]	0g	1r	2g
.	.	2e	.	.	1cc
1G	2r	1d	.	2r	.
.	2G	.	.	2g	2b
=21	=21	=21	=21	=21	=21
1r	2A	1c	2r	2e	[0cc
.	2F	.	1f	2f	.
1C	1c	2r	.	1g	.
.	.	[2c	2e	.	.
=22	=22	=22	=22	=22	=22
1.F	1A	2c]	2f	2a	0cc]
.	.	2c	2.a	2.cc	.
.	2F	2.A	.	.	.
.	.	.	4g	4b	.
2F	[2A	.	4f	4a	.
.	.	4B	4e	4g	.
=23	=23	=23	=23	=23	=23
0F	4A]	0c	0f	0a	[0cc
.	4G	.	.	.	.
.	4F	.	.	.	.
.	4E	.	.	.	.
.	1F	.	.	.	.
=24	=24	=24	=24	=24	=24
0C	0G	0c	0e	0g	0cc]
=25	=25	=25	=25	=25	=25
0r	1c	0r	0r	0g	1cc
.	2B	.	.	.	2dd
.	[2c	.	.	.	[2ee
=26	=26	=26	=26	=26	=26
0r	2c]	0r	0r	0g	2ee]
.	4B	.	.	.	4dd
.	4A	.	.	.	4cc
.	2B	.	.	.	2dd
.	2c	.	.	.	2ee
=27	=27	=27	=27	=27	=27
0r	1F	0r	1f	1a	0cc
.	2c	.	2e	2g	.
.	4F	.	[2f	[2a	.
.	4G	.	.	.	.
=28	=28	=28	=28	=28	=28
0r	4A	0r	2f]	2a]	0cc
.	4B	.	.	.	.
.	1c	.	4e	4g	.
.	.	.	4d	4f	.
.	.	.	2e	2g	.
.	2F	.	2f	2a	.
=29	=29	=29	=29	=29	=29
1G	1G	2r	[0d	1g	2.b
.	.	2G	.	.	.
.	.	.	.	.	4cc
2F#	1r	2A	.	2r	[1dd
[2G	.	[2B	.	2g	.
=30	=30	=30	=30	=30	=30
2G]	1r	2B]	0d]	2g	1dd]
4F#	.	4A	.	1a	.
4E	.	4G	.	.	.
2F#	2r	2A	.	.	1dd
2G	2G	2B	.	2g	.
=31	=31	=31	=31	=31	=31
2C	2E	1c	1e	[0g	2cc
2c	2C	.	.	.	2ee
2B	2G	2d	1r	.	2dd
[2c	2C	[2e	.	.	2cc
=32	=32	=32	=32	=32	=32
2c]	1.G	2e]	1r	0g]	1dd
4B	.	4d	.	.	.
4A	.	4c	.	.	.
2B	.	2d	2r	.	1g
2c	2C	2e	[2g	.	.
=33	=33	=33	=33	=33	=33
1A	2r	1c	2g]	0r	1cc
.	1c	.	2f	.	.
1G	.	2r	2e	.	1r
.	2B	[2g	2d	.	.
=34	=34	=34	=34	=34	=34
0r	1A	2g]	1c	1r	2r
.	.	2f	.	.	1cc
.	1G	2e	1r	1g	.
.	.	2d	.	.	2b
=35	=35	=35	=35	=35	=35
0r	2A	2c	0r	2f	2a
.	2E	2B	.	1e	2g
.	1F	2.A	.	.	1a
.	.	.	.	2d	.
.	.	4B	.	.	.
=36	=36	=36	=36	=36	=36
2r	1C	1c	1r	1e	0g
1c	.	.	.	.	.
.	1G	2r	2r	1d	.
2B	.	2d	[2g	.	.
=37	=37	=37	=37	=37	=37
1A	0r	2e	2g]	2c	0r
.	.	2c	2f	1cc	.
1G	.	2.g	2e	.	.
.	.	.	2d	2b	.
.	.	4f	.	.	.
=38	=38	=38	=38	=38	=38
2A	0r	1e	2c	2a	1r
2E	.	.	2B	2g	.
1F	.	1c	2.A	1a	2r
.	.	.	.	.	[2ff
.	.	.	4B	.	.
=39	=39	=39	=39	=39	=39
1C	2r	1r	1c	0g	2ff]
.	1c	.	.	.	2ee
1G	.	2r	1d	.	1dd
.	2B	[2g	.	.	.
=40	=40	=40	=40	=40	=40
0r	1A	2g]	1c	2r	2ee
.	.	2f	.	1cc	2ff
.	1G	2e	2r	.	2gg
.	.	2d	2g	2b	2g
=41	=41	=41	=41	=41	=41
2r	1.A	2c	2f	1.a	2.cc
1c	.	4A	2e	.	.
.	.	4B	.	.	4dd
.	.	4c	1e	.	1ee
.	.	4d	.	.	.
2B	2E	2e	.	2g	.
=42	=42	=42	=42	=42	=42
2A	0F	1.c	2r	0a	2r
2F	.	.	2A	.	2cc
2.A	.	.	2.c	.	1ff
.	.	2c	.	.	.
4B	.	.	4d	.	.
=43	=43	=43	=43	=43	=43
2c	2C	2c	4e	1g	1ee
.	.	.	4f	.	.
2C	1c	2c	2.g	.	.
1G	.	1d	.	2r	1dd
.	.	.	4f	.	.
.	2B	.	2d	[2g	.
=44	=44	=44	=44	=44	=44
0r	1A	1c	2e	2g]	2r
.	.	.	2c	2f	1cc
.	1G	2r	1g	2e	.
.	.	2g	.	2d	2b
=45	=45	=45	=45	=45	=45
0r	2A	2f	0r	2c	2a
.	2E	1e	.	2B	2g
.	1F	.	.	2.A	1a
.	.	2d	.	.	.
.	.	.	.	4B	.
=46	=46	=46	=46	=46	=46
2r	1C	1e	1r	1c	0g
1c	.	.	.	.	.
.	1G	1d	2r	2r	.
2B	.	.	[2g	2d	.
=47	=47	=47	=47	=47	=47
1A	0r	1c	2g]	2e	2r
.	.	.	2f	2c	1cc
1G	.	2r	2e	1g	.
.	.	2g	2d	.	2b
=48	=48	=48	=48	=48	=48
1A	2r	2f	4c	1r	1a
.	.	.	4B	.	.
.	1c	2.e	4c	.	.
.	.	.	4d	.	.
1E	.	.	1e	2r	1g
.	.	4f	.	.	.
.	2B	2g	.	2g	.
=49	=49	=49	=49	=49	=49
0F	2A	1f	1c	1a	1.cc
.	2F	.	.	.	.
.	2.A	1F	1f	1a	.
.	.	.	.	.	2dd
.	4B	.	.	.	.
=50	=50	=50	=50	=50	=50
0C	1c	2G	1e	0g	0ee
.	.	1c	.	.	.
.	1G	.	1c	.	.
.	.	4B	.	.	.
.	.	4A	.	.	.
=51	=51	=51	=51	=51	=51
0G	0G	0B	0d	0g	0dd
=52	=52	=52	=52	=52	=52
0r	0r	0r	0r	1r	0dd
.	.	.	.	[1g	.
=53	=53	=53	=53	=53	=53
0r	0r	0r	0r	1g]	1ee
.	.	.	.	1a	1cc
=54	=54	=54	=54	=54	=54
1r	0r	0r	0d	1f	2.dd
.	.	.	.	.	4cc
[1G	.	.	.	[1g	4b
.	.	.	.	.	4a
.	.	.	.	.	2b
=55	=55	=55	=55	=55	=55
1G]	0r	0r	1e	1g]	2g
.	.	.	.	.	2b
1A	.	.	1c	1e	[1a
=56	=56	=56	=56	=56	=56
1F	0r	1r	2d	2.f	1a]
.	.	.	1c	.	.
.	.	.	.	4e	.
1G	.	[1g	.	1d	1dd
.	.	.	2B	.	.
=57	=57	=57	=57	=57	=57
1C	0c	1g]	2.c	1c	1ee
.	.	.	4B	.	.
1F	.	1a	1A	1r	1cc
=58	=58	=58	=58	=58	=58
2D	1d	1f	2r	1r	2.ff
2D	.	.	1d	.	.
.	.	.	.	.	4ee
1G	1B	2.g	.	[1g	2dd
.	.	.	2d	.	[2gg
.	.	4f	.	.	.
=59	=59	=59	=59	=59	=59
1C	2.c	4e	2e	1g]	4gg]
.	.	4d	.	.	4ff
.	.	2e	2c	.	4ee
.	4B	.	.	.	4dd
1r	4A	2.f	1c	1a	4cc
.	4G	.	.	.	4b
.	2F	.	.	.	[2a
.	.	8e	.	.	.
.	.	8d	.	.	.
=60	=60	=60	=60	=60	=60
0r	1A	1c	1r	1f	4a]
.	.	.	.	.	4b
.	.	.	.	.	1cc
.	1G	1d	[1g	2.g	.
.	.	.	.	.	2b
.	.	.	.	4f	.
=61	=61	=61	=61	=61	=61
0c	1C	1c	1g]	4e	0cc
.	.	.	.	4d	.
.	.	.	.	4c	.
.	.	.	.	4B	.
.	1F	2r	1a	1A	.
.	.	[2A	.	.	.
=62	=62	=62	=62	=62	=62
1d	1D	2A]	1f	1a	1r
.	.	2.d	.	.	.
1B-	1G	.	2.g	1d	1dd
.	.	4G	.	.	.
.	.	[2g	.	.	.
.	.	.	4f	.	.
=63	=63	=63	=63	=63	=63
2.c	1C	4g]	4e	1g	1ee
.	.	4f	4d	.	.
.	.	4e	1e	.	.
4B-	.	4d	.	.	.
1A	1c	1e	.	1a	1ee
.	.	.	2A	.	.
=64	=64	=64	=64	=64	=64
1D	1d	1d	1a	1f	2.ff
.	.	.	.	.	4ee
1G	1B	2r	1d	1g	1dd
.	.	[2g	.	.	.
=65	=65	=65	=65	=65	=65
1C	2.c	2g]	1g	1e	2r
.	.	2e	.	.	1cc
.	4B	.	.	.	.
1r	1A	1f	1c	1r	.
.	.	.	.	.	2a
=66	=66	=66	=66	=66	=66
1r	1G	2.g	1d	2r	1b
.	.	.	.	1g	.
.	.	4f	.	.	.
2r	1C	4e	1c	.	[1cc
.	.	4d	.	.	.
2c	.	[2c	.	2e	.
=67	=67	=67	=67	=67	=67
2A	0r	2c]	2r	2f	2cc]
2B-	.	2G	1g	2g	4b
.	.	.	.	.	4a
1c	.	2r	.	2e	1g
.	.	2c	2e	[2c	.
=68	=68	=68	=68	=68	=68
2F	0r	2A	2f	4c]	2a
.	.	.	.	4d	.
2G	.	2B	4e	1e	1g
.	.	.	4d	.	.
1A	.	1c	2c	.	.
.	.	.	2A	2c	2f#
=69	=69	=69	=69	=69	=69
2G	2r	2d	2B	2r	1g
2E	2c	2e	2c	2g	.
2F	2A	1d	2r	2f	1r
2G	2B	.	[2g	2d	.
=70	=70	=70	=70	=70	=70
1C	1c	1c	2g]	2e	2r
.	.	.	2e	2c	2cc
1r	2F	2r	2f	1d	2a
.	2G	2g	4e	.	2b
.	.	.	4d	.	.
=71	=71	=71	=71	=71	=71
1r	1A	2e	2c	2r	1cc
.	.	2f	2A	2c	.
2r	2G	1g	2B	2d	2b
2c	2E	.	2c	2e	2g
=72	=72	=72	=72	=72	=72
2A	2F	2f	2r	1d	2a
2B	2G	2d	1g	.	4g
.	.	.	.	.	4f
1c	2C	1e	.	1c	2e
.	2c	.	2g	.	2ee
=73	=73	=73	=73	=73	=73
2F	2A	2f	2a	2r	2cc
2G	2B	2d	1g	2g	2b
1A	1c	1c	.	2e	2a
.	.	.	2f	2f	[2cc
=74	=74	=74	=74	=74	=74
0G	2r	1r	2e	1g	2cc]
.	2.G	.	4d	.	4b
.	.	.	4c	.	4a
.	.	1g	1d	2G	1b
.	4A	.	.	.	.
.	4B	.	.	[2g	.
.	4G	.	.	.	.
=75	=75	=75	=75	=75	=75
0C	1A	2e	[0c	2g]	[0cc
.	.	2f	.	1f	.
.	2G	1g	.	.	.
.	[2c	.	.	2e	.
=76	=76	=76	=76	=76	=76
0F	4c]	2.f	1c_	1a	1cc_
.	4B	.	.	.	.
.	4A	.	.	.	.
.	4G	4e	.	.	.
.	1A	2c	1c_	1f	1cc_
.	.	2d	.	.	.
=77	=77	=77	=77	=77	=77
0C	0G	0e	0c]	0g	0cc]
==	==	==	==	==	==
*-	*-	*-	*-	*-	*-
!!!CDT: 1525/^1526/-1594/2/2
!!!OCY: Italia
!!!AGN: Mass (Free)
!!!AST: renaissance, vocal
!!!ASW: Chanson 1533 (Lupi or Cadéac)
!!!PWK: Masses, Book 2
!!!RNB: Cadence finals: G
!!!YOR: Le Opere Complete, v. 4, p. 167
!!!YOO: Rome, Italy: Fratelli Scalera
!!!END: 1992//
!!!EED: John Miller
!!!YEC: Copyright 2000, John Miller
!!!YEN: United States of America
!!!YEM: Rights to all derivative electronic formats reserved.
!!!YEM: Refer to licensing agreement for further details.
!!!YEM: This file must be accompanied by the licensing agreement.
!!!YEM: A copy of the licensing agreement may be found at http://www.music-cog.ohio-state.edu/HumdrumDatabases/Palestrina/license.txt
!!!EMD: converted to Humdrum by Bret Aarden
